assets/Laptop/Flat/laptop_flat.svg

<svg width="32" height="32" viewBox="0 0 32 32" fill="none" xmlns="http://www.w3.org/2000/svg">
<path d="M27.9999 20L15.9999 19L3.99992 20L2.01992 28.8911C1.9104 29.657 2.99521 29.5 3.49992 29.5H28.4999C29.0046 29.5 30.0894 29.657 29.9799 28.8911L27.9999 20Z" fill="#D3D3D3"/>
<path d="M27 2H5C4.45 2 4 2.45 4 3V19.99H28V3C28 2.45 27.55 2 27 2Z" fill="#7167A4"/>
<path d="M5 18.74V3.25C5 3.11 5.11 3 5.25 3H26.75C26.89 3 27 3.11 27 3.25V18.74C27 18.88 26.89 18.99 26.75 18.99H5.25C5.11 18.99 5 18.88 5 18.74Z" fill="#26C9FC"/>
<path fill-rule="evenodd" clip-rule="evenodd" d="M27.27 21.28L27.99 24.53C28.04 24.77 27.86 24.99 27.62 24.99H4.37997C4.13997 24.99 3.95997 24.76 4.00997 24.53L4.72997 21.28C4.76997 21.11 4.91997 20.99 5.09997 20.99H26.9C27.08 20.99 27.23 21.11 27.27 21.28ZM8.18555 24.5H6.75344L6.87845 23.75H8.2793L8.18555 24.5ZM10.1241 24.5H8.68944L8.7832 23.75H10.1866L10.1241 24.5ZM11.9623 24.5H10.6259L10.6884 23.75H11.9936L11.9623 24.5ZM13.8123 24.5H12.4627L12.494 23.75H13.8435L13.8123 24.5ZM15.75 24.5H14.3127L14.344 23.75H15.75V24.5ZM17.6873 24.5H16.25V23.75H17.656L17.6873 24.5ZM19.5373 24.5H18.1877L18.1565 23.75H19.506L19.5373 24.5ZM21.3741 24.5H20.0377L20.0064 23.75H21.3116L21.3741 24.5ZM23.3106 24.5H21.8759L21.8134 23.75H23.2168L23.3106 24.5ZM25.2466 24.5H23.8145L23.7207 23.75H25.1216L25.2466 24.5ZM27 24.5H25.7535L25.6284 23.75H26.875L27 24.5ZM26.6667 22.5L26.7917 23.25H25.5451L25.4201 22.5H26.6667ZM26.5 21.5L26.5833 22H25.3368L25.2535 21.5H26.5ZM23.4395 21.5H24.7466L24.8299 22H23.5019L23.4395 21.5ZM21.6259 21.5H22.9356L22.9981 22H21.6675L21.6259 21.5ZM19.9127 21.5H21.1241L21.1658 22H19.9335L19.9127 21.5ZM18.0627 21.5H19.4123L19.4331 22H18.0835L18.0627 21.5ZM16.25 21.5H17.5623L17.5831 22H16.25V21.5ZM14.4377 21.5H15.75V22H14.4169L14.4377 21.5ZM12.5877 21.5H13.9373L13.9164 22H12.5669L12.5877 21.5ZM10.8759 21.5H12.0873L12.0665 22H10.8342L10.8759 21.5ZM9.06444 21.5H10.3741L10.3325 22H9.00195L9.06444 21.5ZM7.25344 21.5H8.56055L8.49805 22H7.17012L7.25344 21.5ZM5.5 21.5H6.74655L6.66322 22H5.41667L5.5 21.5ZM5.20834 23.25L5.33334 22.5H6.57989L6.45489 23.25H5.20834ZM5 24.5L5.12501 23.75H6.37155L6.24655 24.5H5ZM25.0382 23.25L24.9132 22.5H23.5644L23.6582 23.25H25.0382ZM23.1543 23.25L23.0606 22.5H21.7092L21.7717 23.25H23.1543ZM21.27 23.25L21.2075 22.5H19.9544L19.9856 23.25H21.27ZM19.4852 23.25L19.4539 22.5H18.1044L18.1356 23.25H19.4852ZM17.6352 23.25L17.6039 22.5H16.25V23.25H17.6352ZM7.08678 22.5L6.96178 23.25H8.3418L8.43555 22.5H7.08678ZM8.93945 22.5L8.8457 23.25H10.2283L10.2908 22.5H8.93945ZM10.7925 22.5L10.73 23.25H12.0144L12.0456 22.5H10.7925ZM12.5461 22.5L12.5148 23.25H13.8644L13.8956 22.5H12.5461ZM14.3961 22.5L14.3648 23.25H15.75V22.5H14.3961Z" fill="#9B9B9B"/>
<path d="M29.09 29C29.44 29 29.74 28.8 29.89 28.51L29.98 28.89L29.9834 28.9133C29.9921 28.9736 30 29.0279 30 29.09C30 29.59 29.59 30 29.09 30H2.91C2.41 30 2 29.59 2 29.09C2 29.02 2.01 28.96 2.03 28.9L2.11 28.52C2.26 28.8 2.56 29 2.91 29H29.09Z" fill="#9B9B9B"/>
<path d="M10.82 27.99H21.18C21.34 27.99 21.46 27.84 21.42 27.68L21.04 26.18C21.01 26.07 20.91 25.99 20.8 25.99H11.2C11.09 25.99 10.99 26.07 10.96 26.18L10.58 27.68C10.54 27.84 10.66 27.99 10.82 27.99Z" fill="#9B9B9B"/>
</svg>

<svg xmlns="http://www.w3.org/2000/svg" width="32" height="32" fill="none"><path fill="#D3D3D3" d="m28 20-12-1-12 1-1.98 8.891c-.11.766.975.609 1.48.609h25c.505 0 1.59.157 1.48-.609L28 20Z"/><path fill="#7167A4" d="M27 2H5c-.55 0-1 .45-1 1v16.99h24V3c0-.55-.45-1-1-1Z"/><path fill="#26C9FC" d="M5 18.74V3.25c0-.14.11-.25.25-.25h21.5c.14 0 .25.11.25.25v15.49c0 .14-.11.25-.25.25H5.25c-.14 0-.25-.11-.25-.25Z"/><path fill="#9B9B9B" fill-rule="evenodd" d="m27.27 21.28.72 3.25a.38.38 0 0 1-.37.46H4.38c-.24 0-.42-.23-.37-.46l.72-3.25c.04-.17.19-.29.37-.29h21.8c.18 0 .33.12.37.29ZM8.186 24.5H6.753l.125-.75H8.28l-.093.75Zm1.938 0H8.69l.094-.75h1.404l-.063.75Zm1.838 0h-1.336l.062-.75h1.306l-.032.75Zm1.85 0h-1.35l.032-.75h1.35l-.032.75Zm1.938 0h-1.437l.031-.75h1.406v.75Zm1.937 0H16.25v-.75h1.406l.031.75Zm1.85 0h-1.35l-.03-.75h1.349l.031.75Zm1.837 0h-1.336l-.032-.75h1.306l.062.75Zm1.937 0h-1.435l-.063-.75h1.404l.094.75Zm1.936 0h-1.433l-.093-.75h1.4l.126.75Zm1.753 0h-1.247l-.125-.75h1.247l.125.75Zm-.333-2 .125.75h-1.247l-.125-.75h1.247Zm-.167-1 .083.5h-1.246l-.084-.5H26.5Zm-3.06 0h1.307l.083.5h-1.328l-.063-.5Zm-1.814 0h1.31l.062.5h-1.33l-.042-.5Zm-1.713 0h1.211l.042.5h-1.233l-.02-.5Zm-1.85 0h1.35l.02.5h-1.35l-.02-.5Zm-1.813 0h1.312l.021.5H16.25v-.5Zm-1.812 0h1.312v.5h-1.333l.02-.5Zm-1.85 0h1.35l-.022.5h-1.35l.022-.5Zm-1.712 0h1.211l-.02.5h-1.233l.042-.5Zm-1.812 0h1.31l-.042.5h-1.33l.062-.5Zm-1.81 0H8.56l-.063.5H7.17l.083-.5Zm-1.754 0h1.247l-.084.5H5.417l.083-.5Zm-.292 1.75.125-.75H6.58l-.125.75H5.208ZM5 24.5l.125-.75h1.247l-.125.75H5Zm20.038-1.25-.125-.75h-1.349l.094.75h1.38Zm-1.884 0-.093-.75h-1.352l.063.75h1.382Zm-1.884 0-.063-.75h-1.253l.032.75h1.284Zm-1.785 0-.031-.75h-1.35l.032.75h1.35Zm-1.85 0-.031-.75H16.25v.75h1.385ZM7.087 22.5l-.125.75h1.38l.094-.75h-1.35Zm1.852 0-.093.75h1.382l.063-.75H8.939Zm1.854 0-.063.75h1.284l.032-.75h-1.253Zm1.753 0-.031.75h1.35l.03-.75h-1.349Zm1.85 0-.031.75h1.385v-.75h-1.354Z" clip-rule="evenodd"/><path fill="#9B9B9B" d="M29.09 29a.9.9 0 0 0 .8-.49l.09.38.003.023A.913.913 0 0 1 29.09 30H2.91c-.5 0-.91-.41-.91-.91 0-.07.01-.13.03-.19l.08-.38c.15.28.45.48.8.48h26.18ZM10.82 27.99h10.36c.16 0 .28-.15.24-.31l-.38-1.5a.255.255 0 0 0-.24-.19h-9.6c-.11 0-.21.08-.24.19l-.38 1.5c-.04.16.08.31.24.31Z"/></svg>
